packages/gestalt-icons-android/vr-theme/ic_vr_align-middle_gestalt.svg

<svg width="24" height="24" viewBox="0 0 24 24" fill="none" xmlns="http://www.w3.org/2000/svg">
<path fill-rule="evenodd" clip-rule="evenodd" d="M1 19C1 21.2091 2.79086 23 5 23H19C21.2091 23 23 21.2091 23 19V5C23 2.79086 21.2091 1 19 1H5C2.79086 1 1 2.79086 1 5V19ZM5 21H19C20.1046 21 21 20.1046 21 19V15H3V19C3 20.1046 3.89543 21 5 21ZM3 9V5C3 3.89543 3.89543 3 5 3H19C20.1046 3 21 3.89543 21 5V9H3Z" fill="black"/>
</svg>

<svg xmlns="http://www.w3.org/2000/svg" width="24" height="24"><path d="M1 19a4 4 0 0 0 4 4h14a4 4 0 0 0 4-4V5a4 4 0 0 0-4-4H5a4 4 0 0 0-4 4zm2 0v-4h18v4a2 2 0 0 1-2 2H5a2 2 0 0 1-2-2M3 9V5c0-1.1.9-2 2-2h14a2 2 0 0 1 2 2v4z"/></svg>
